;FLAVOR:Marlin
;TIME:1005
;Filament used: 1.27914m
;Layer height: 0.2
;MINX:65.7
;MINY:95.7
;MINZ:0.2
;MAXX:154.3
;MAXY:124.3
;MAXZ:3
;Generated with Cura_SteamEngine 4.3.0
M140 S70
M105
M190 S70
M104 S250
M105
M109 S250
M82 ;absolute extrusion mode
M201 X500.00 Y500.00 Z100.00 E5000.00 ;Setup machine max acceleration
M203 X500.00 Y500.00 Z10.00 E50.00 ;Setup machine max feedrate
M204 P500.00 R1000.00 T500.00 ;Setup Print/Retract/Travel acceleration
M205 X8.00 Y8.00 Z0.40 E5.00 ;Setup Jerk
M220 S100 ;Reset Feedrate
M221 S100 ;Reset Flowrate

G28 ;Home

G92 E0 ;Reset Extruder
G1 Z2.0 F3000 ;Move Z Axis up
G1 X10.1 Y20 Z0.28 F5000.0 ;Move to start position
G1 X10.1 Y200.0 Z0.28 F1500.0 E15 ;Draw the first line
G1 X10.4 Y200.0 Z0.28 F5000.0 ;Move to side a little
G1 X10.4 Y20 Z0.28 F1500.0 E30 ;Draw the second line
G92 E0 ;Reset Extruder
G1 Z2.0 F3000 ;Move Z Axis up

G92 E0
G92 E0
G1 F2700 E-5
;LAYER_COUNT:15
;LAYER:0
M107
;MESH:5fde3abd-755f-467d-9b60-c17cd00562ed.stl
G0 F6000 X153.603 Y123.881 Z0.2
;TYPE:WALL-INNER
G1 F2700 E0
G1 F1200 X153.46 Y123.9 E0.0048
G1 X66.54 Y123.9 E2.89577
G1 X66.397 Y123.881 E2.90057
G1 X66.305 Y123.843 E2.90388
G1 X66.221 Y123.779 E2.90739
G1 X66.157 Y123.695 E2.9109
G1 X66.119 Y123.603 E2.91421
G1 X66.1 Y123.46 E2.91901
G1 X66.1 Y96.54 E3.81437
G1 X66.119 Y96.397 E3.81917
G1 X66.157 Y96.305 E3.82248
G1 X66.221 Y96.221 E3.82599
G1 X66.305 Y96.157 E3.82951
G1 X66.397 Y96.119 E3.83282
G1 X66.54 Y96.1 E3.83762
G1 X153.46 Y96.1 E6.72859
G1 X153.603 Y96.119 E6.73338
G1 X153.695 Y96.157 E6.7367
G1 X153.779 Y96.221 E6.74021
G1 X153.843 Y96.305 E6.74372
G1 X153.881 Y96.397 E6.74703
G1 X153.9 Y96.54 E6.75183
G1 X153.9 Y123.46 E7.64719
G1 X153.881 Y123.603 E7.65199
G1 X153.843 Y123.695 E7.6553
G1 X153.779 Y123.779 E7.65881
G1 X153.695 Y123.843 E7.66233
G1 X153.603 Y123.881 E7.66564
G0 F6000 X153.704 Y124.272
;TYPE:WALL-OUTER
G1 F1200 X153.489 Y124.3 E7.67285
G1 X66.511 Y124.3 E10.56575
G1 X66.296 Y124.272 E10.57296
G1 X66.101 Y124.191 E10.57998
G1 X65.936 Y124.064 E10.58691
G1 X65.809 Y123.899 E10.59383
G1 X65.728 Y123.704 E10.60086
G1 X65.7 Y123.489 E10.60807
G1 X65.7 Y96.511 E11.50536
G1 X65.728 Y96.296 E11.51257
G1 X65.809 Y96.101 E11.51959
G1 X65.936 Y95.936 E11.52652
G1 X66.101 Y95.809 E11.53344
G1 X66.296 Y95.728 E11.54047
G1 X66.511 Y95.7 E11.54768
G1 X153.489 Y95.7 E14.44058
G1 X153.704 Y95.728 E14.44779
G1 X153.899 Y95.809 E14.45481
G1 X154.064 Y95.936 E14.46174
G1 X154.191 Y96.101 E14.46866
G1 X154.272 Y96.296 E14.47569
G1 X154.3 Y96.511 E14.4829
G1 X154.3 Y123.489 E15.38019
G1 X154.272 Y123.704 E15.3874
G1 X154.191 Y123.899 E15.39442
G1 X154.064 Y124.064 E15.40135
G1 X153.899 Y124.191 E15.40827
G1 X153.704 Y124.272 E15.4153
G0 F6000 X153.591 Y123.847
G0 X153.498 Y123.503
;TYPE:SKIN
G1 F1200 X153.441 Y123.51 E15.41721
G1 X66.559 Y123.51 E18.30691
G1 X66.502 Y123.503 E18.30882
G1 X66.497 Y123.498 E18.30906
G1 X66.49 Y123.441 E18.31097
G1 X66.49 Y96.559 E19.20507
G1 X66.498 Y96.501 E19.20702
G1 X66.502 Y96.497 E19.2072
G1 X66.559 Y96.49 E19.20911
G1 X153.441 Y96.49 E22.09882
G1 X153.498 Y96.497 E22.10073
G1 X153.502 Y96.501 E22.10092
G1 X153.51 Y96.559 E22.10287
G1 X153.51 Y123.441 E22.99697
G1 X153.503 Y123.498 E22.99888
G1 X153.498 Y123.503 E22.99911
G0 F6000 X153.534 Y123.781
G0 X153.696 Y123.581
G0 X153.79 Y96.78
G0 X153.349 Y96.78
G1 F1200 X153.218 Y96.65 E23.00525
G0 F6000 X152.653 Y96.65
G1 F1200 X153.349 Y97.346 E23.03799
G0 F6000 X153.349 Y97.912
G1 F1200 X152.087 Y96.65 E23.09735
G0 F6000 X151.521 Y96.65
G1 F1200 X153.349 Y98.478 E23.18333
G0 F6000 X153.349 Y99.043
G1 F1200 X150.955 Y96.65 E23.29591
G0 F6000 X150.39 Y96.65
G1 F1200 X153.349 Y99.609 E23.4351
G0 F6000 X153.349 Y100.175
G1 F1200 X149.824 Y96.65 E23.6009
G0 F6000 X149.258 Y96.65
G1 F1200 X153.349 Y100.74 E23.79331
G0 F6000 X153.349 Y101.306
G1 F1200 X148.693 Y96.65 E24.01231
G0 F6000 X148.127 Y96.65
G1 F1200 X153.349 Y101.872 E24.25794
G0 F6000 X153.349 Y102.437
G1 F1200 X147.561 Y96.65 E24.53016
G0 F6000 X146.996 Y96.65
G1 F1200 X153.349 Y103.003 E24.82899
G0 F6000 X153.349 Y103.569
G1 F1200 X146.43 Y96.65 E25.15444
G0 F6000 X145.864 Y96.65
G1 F1200 X153.349 Y104.134 E25.50649
G0 F6000 X153.349 Y104.7
G1 F1200 X145.299 Y96.65 E25.88513
G0 F6000 X144.733 Y96.65
G1 F1200 X153.349 Y105.266 E26.2904
G0 F6000 X153.349 Y105.831
G1 F1200 X144.167 Y96.65 E26.72227
G0 F6000 X143.602 Y96.65
G1 F1200 X153.349 Y106.397 E27.18074
G0 F6000 X153.349 Y106.963
G1 F1200 X143.036 Y96.65 E27.66583
G0 F6000 X142.47 Y96.65
G1 F1200 X153.349 Y107.529 E28.17755
G0 F6000 X153.349 Y108.094
G1 F1200 X141.905 Y96.65 E28.71584
G0 F6000 X141.339 Y96.65
G1 F1200 X153.349 Y108.66 E29.28075
G0 F6000 X153.349 Y109.226
G1 F1200 X140.773 Y96.65 E29.87229
G0 F6000 X140.207 Y96.65
G1 F1200 X153.349 Y109.791 E30.49042
G0 F6000 X153.349 Y110.357
G1 F1200 X139.642 Y96.65 E31.13516
G0 F6000 X139.076 Y96.65
G1 F1200 X153.349 Y110.923 E31.80652
G0 F6000 X153.349 Y111.488
G1 F1200 X138.51 Y96.65 E32.50448
G0 F6000 X137.945 Y96.65
G1 F1200 X153.349 Y112.054 E33.22903
G0 F6000 X153.349 Y112.62
G1 F1200 X137.379 Y96.65 E33.98021
G0 F6000 X136.813 Y96.65
G1 F1200 X153.349 Y113.185 E34.75799
G0 F6000 X153.349 Y113.751
G1 F1200 X136.248 Y96.65 E35.56237
G0 F6000 X135.682 Y96.65
G1 F1200 X153.349 Y114.317 E36.39337
G0 F6000 X153.349 Y114.882
G1 F1200 X135.116 Y96.65 E37.25097
G0 F6000 X134.551 Y96.65
G1 F1200 X153.349 Y115.448 E38.13517
G0 F6000 X153.349 Y116.014
G1 F1200 X133.985 Y96.65 E39.046
G0 F6000 X133.419 Y96.65
G1 F1200 X153.349 Y116.579 E39.98342
G0 F6000 X153.349 Y117.145
G1 F1200 X132.854 Y96.65 E40.94744
G0 F6000 X132.288 Y96.65
G1 F1200 X153.349 Y117.711 E41.93809
G0 F6000 X153.349 Y118.277
G1 F1200 X131.722 Y96.65 E42.95535
G0 F6000 X131.156 Y96.65
G1 F1200 X153.349 Y118.842 E43.99922
G0 F6000 X153.349 Y119.408
G1 F1200 X130.591 Y96.65 E45.06969
G0 F6000 X130.025 Y96.65
G1 F1200 X153.349 Y119.974 E46.16678
G0 F6000 X153.349 Y120.539
G1 F1200 X129.459 Y96.65 E47.29047
G0 F6000 X128.894 Y96.65
G1 F1200 X153.349 Y121.105 E48.44075
G0 F6000 X153.349 Y121.671
G1 F1200 X128.328 Y96.65 E49.61766
G0 F6000 X127.762 Y96.65
G1 F1200 X153.349 Y122.236 E50.82117
G0 F6000 X153.349 Y122.802
G1 F1200 X127.197 Y96.65 E52.05128
G0 F6000 X126.631 Y96.65
G1 F1200 X153.33 Y123.349 E53.30712
G0 F6000 X152.764 Y123.349
G1 F1200 X126.065 Y96.65 E54.56296
G0 F6000 X125.5 Y96.65
G1 F1200 X152.199 Y123.349 E55.8188
G0 F6000 X151.633 Y123.349
G1 F1200 X124.934 Y96.65 E57.07464
G0 F6000 X124.368 Y96.65
G1 F1200 X151.067 Y123.349 E58.33048
G0 F6000 X150.502 Y123.349
G1 F1200 X123.803 Y96.65 E59.58632
G0 F6000 X123.237 Y96.65
G1 F1200 X149.936 Y123.349 E60.84216
G0 F6000 X149.37 Y123.349
G1 F1200 X122.671 Y96.65 E62.098
G0 F6000 X122.106 Y96.65
G1 F1200 X148.804 Y123.349 E63.35381
G0 F6000 X148.239 Y123.349
G1 F1200 X121.54 Y96.65 E64.60965
G0 F6000 X120.974 Y96.65
G1 F1200 X147.673 Y123.349 E65.86549
G0 F6000 X147.107 Y123.349
G1 F1200 X120.408 Y96.65 E67.12133
G0 F6000 X119.843 Y96.65
G1 F1200 X146.542 Y123.349 E68.37717
G0 F6000 X145.976 Y123.349
G1 F1200 X119.277 Y96.65 E69.63301
G0 F6000 X118.711 Y96.65
G1 F1200 X145.41 Y123.349 E70.88885
G0 F6000 X144.845 Y123.349
G1 F1200 X118.146 Y96.65 E72.14469
G0 F6000 X117.58 Y96.65
G1 F1200 X144.279 Y123.349 E73.40053
G0 F6000 X143.713 Y123.349
G1 F1200 X117.014 Y96.65 E74.65637
G0 F6000 X116.449 Y96.65
G1 F1200 X143.148 Y123.349 E75.9122
G0 F6000 X142.582 Y123.349
G1 F1200 X115.883 Y96.65 E77.16804
G0 F6000 X115.317 Y96.65
G1 F1200 X142.016 Y123.349 E78.42388
G0 F6000 X141.451 Y123.349
G1 F1200 X114.752 Y96.65 E79.67972
G0 F6000 X114.186 Y96.65
G1 F1200 X140.885 Y123.349 E80.93556
G0 F6000 X140.319 Y123.349
G1 F1200 X113.62 Y96.65 E82.1914
G0 F6000 X113.055 Y96.65
G1 F1200 X139.753 Y123.349 E83.44722
G0 F6000 X139.188 Y123.349
G1 F1200 X112.489 Y96.65 E84.70305
G0 F6000 X111.923 Y96.65
G1 F1200 X138.622 Y123.349 E85.95889
G0 F6000 X138.056 Y123.349
G1 F1200 X111.358 Y96.65 E87.21471
G0 F6000 X110.792 Y96.65
G1 F1200 X137.491 Y123.349 E88.47055
G0 F6000 X136.925 Y123.349
G1 F1200 X110.226 Y96.65 E89.72639
G0 F6000 X109.66 Y96.65
G1 F1200 X136.359 Y123.349 E90.98223
G0 F6000 X135.794 Y123.349
G1 F1200 X109.095 Y96.65 E92.23807
G0 F6000 X108.529 Y96.65
G1 F1200 X135.228 Y123.349 E93.4939
G0 F6000 X134.662 Y123.349
G1 F1200 X107.963 Y96.65 E94.74974
G0 F6000 X107.398 Y96.65
G1 F1200 X134.097 Y123.349 E96.00558
G0 F6000 X133.531 Y123.349
G1 F1200 X106.832 Y96.65 E97.26142
G0 F6000 X106.266 Y96.65
G1 F1200 X132.965 Y123.349 E98.51726
G0 F6000 X132.4 Y123.349
G1 F1200 X105.701 Y96.65 E99.7731
G0 F6000 X105.135 Y96.65
G1 F1200 X131.834 Y123.349 E101.02894
G0 F6000 X131.268 Y123.349
G1 F1200 X104.569 Y96.65 E102.28478
G0 F6000 X104.004 Y96.65
G1 F1200 X130.703 Y123.349 E103.54062
G0 F6000 X130.137 Y123.349
G1 F1200 X103.438 Y96.65 E104.79646
G0 F6000 X102.872 Y96.65
G1 F1200 X129.571 Y123.349 E106.0523
G0 F6000 X129.005 Y123.349
G1 F1200 X102.307 Y96.65 E107.30811
G0 F6000 X101.741 Y96.65
G1 F1200 X128.44 Y123.349 E108.56395
G0 F6000 X127.874 Y123.349
G1 F1200 X101.175 Y96.65 E109.81979
G0 F6000 X100.609 Y96.65
G1 F1200 X127.308 Y123.349 E111.07563
G0 F6000 X126.743 Y123.349
G1 F1200 X100.044 Y96.65 E112.33147
G0 F6000 X99.478 Y96.65
G1 F1200 X126.177 Y123.349 E113.58731
G0 F6000 X125.611 Y123.349
G1 F1200 X98.912 Y96.65 E114.84315
G0 F6000 X98.347 Y96.65
G1 F1200 X125.046 Y123.349 E116.09899
G0 F6000 X124.48 Y123.349
G1 F1200 X97.781 Y96.65 E117.35482
G0 F6000 X97.215 Y96.65
G1 F1200 X123.914 Y123.349 E118.61066
G0 F6000 X123.349 Y123.349
G1 F1200 X96.65 Y96.65 E119.8665
G0 F6000 X96.084 Y96.65
G1 F1200 X122.783 Y123.349 E121.12234
G0 F6000 X122.217 Y123.349
G1 F1200 X95.518 Y96.65 E122.37818
G0 F6000 X94.953 Y96.65
G1 F1200 X121.652 Y123.349 E123.63402
G0 F6000 X121.086 Y123.349
G1 F1200 X94.387 Y96.65 E124.88986
G0 F6000 X93.821 Y96.65
G1 F1200 X120.52 Y123.349 E126.1457
G0 F6000 X119.955 Y123.349
G1 F1200 X93.256 Y96.65 E127.40154
G0 F6000 X92.69 Y96.65
G1 F1200 X119.389 Y123.349 E128.65738
G0 F6000 X118.823 Y123.349
G1 F1200 X92.124 Y96.65 E129.91322
G0 F6000 X91.559 Y96.65
G1 F1200 X118.257 Y123.349 E131.16903
G0 F6000 X117.692 Y123.349
G1 F1200 X90.993 Y96.65 E132.42487
G0 F6000 X90.427 Y96.65
G1 F1200 X117.126 Y123.349 E133.68071
G0 F6000 X116.56 Y123.349
G1 F1200 X89.861 Y96.65 E134.93655
G0 F6000 X89.296 Y96.65
G1 F1200 X115.995 Y123.349 E136.19239
G0 F6000 X115.429 Y123.349
G1 F1200 X88.73 Y96.65 E137.44823
G0 F6000 X88.164 Y96.65
G1 F1200 X114.863 Y123.349 E138.70407
G0 F6000 X114.298 Y123.349
G1 F1200 X87.599 Y96.65 E139.9599
G0 F6000 X87.033 Y96.65
G1 F1200 X113.732 Y123.349 E141.21574
G0 F6000 X113.166 Y123.349
G1 F1200 X86.467 Y96.65 E142.47158
G0 F6000 X85.902 Y96.65
G1 F1200 X112.601 Y123.349 E143.72742
G0 F6000 X112.035 Y123.349
G1 F1200 X85.336 Y96.65 E144.98326
G0 F6000 X84.77 Y96.65
G1 F1200 X111.469 Y123.349 E146.2391
G0 F6000 X110.904 Y123.349
G1 F1200 X84.205 Y96.65 E147.49494
G0 F6000 X83.639 Y96.65
G1 F1200 X110.338 Y123.349 E148.75078
G0 F6000 X109.772 Y123.349
G1 F1200 X83.073 Y96.65 E150.00662
G0 F6000 X82.508 Y96.65
G1 F1200 X109.206 Y123.349 E151.26243
G0 F6000 X108.641 Y123.349
G1 F1200 X81.942 Y96.65 E152.51827
G0 F6000 X81.376 Y96.65
G1 F1200 X108.075 Y123.349 E153.77411
G0 F6000 X107.509 Y123.349
G1 F1200 X80.81 Y96.65 E155.02995
G0 F6000 X80.245 Y96.65
G1 F1200 X106.944 Y123.349 E156.28579
G0 F6000 X106.378 Y123.349
G1 F1200 X79.679 Y96.65 E157.54163
G0 F6000 X79.113 Y96.65
G1 F1200 X105.812 Y123.349 E158.79747
G0 F6000 X105.247 Y123.349
G1 F1200 X78.548 Y96.65 E160.05331
G0 F6000 X77.982 Y96.65
G1 F1200 X104.681 Y123.349 E161.30915
G0 F6000 X104.115 Y123.349
G1 F1200 X77.416 Y96.65 E162.56498
G0 F6000 X76.851 Y96.65
G1 F1200 X103.55 Y123.349 E163.82082
G0 F6000 X102.984 Y123.349
G1 F1200 X76.285 Y96.65 E165.07666
G0 F6000 X75.719 Y96.65
G1 F1200 X102.418 Y123.349 E166.3325
G0 F6000 X101.853 Y123.349
G1 F1200 X75.154 Y96.65 E167.58834
G0 F6000 X74.588 Y96.65
G1 F1200 X101.287 Y123.349 E168.84418
G0 F6000 X100.721 Y123.349
G1 F1200 X74.022 Y96.65 E170.10002
G0 F6000 X73.457 Y96.65
G1 F1200 X100.156 Y123.349 E171.35586
G0 F6000 X99.59 Y123.349
G1 F1200 X72.891 Y96.65 E172.6117
G0 F6000 X72.325 Y96.65
G1 F1200 X99.024 Y123.349 E173.86754
G0 F6000 X98.458 Y123.349
G1 F1200 X71.76 Y96.65 E175.12335
G0 F6000 X71.194 Y96.65
G1 F1200 X97.893 Y123.349 E176.37919
G0 F6000 X97.327 Y123.349
G1 F1200 X70.628 Y96.65 E177.63503
G0 F6000 X70.062 Y96.65
G1 F1200 X96.761 Y123.349 E178.89087
G0 F6000 X96.196 Y123.349
G1 F1200 X69.497 Y96.65 E180.14671
G0 F6000 X68.931 Y96.65
G1 F1200 X95.63 Y123.349 E181.40255
G0 F6000 X95.064 Y123.349
G1 F1200 X68.365 Y96.65 E182.65839
G0 F6000 X67.8 Y96.65
G1 F1200 X94.499 Y123.349 E183.91423
G0 F6000 X93.933 Y123.349
G1 F1200 X67.234 Y96.65 E185.17007
G0 F6000 X66.668 Y96.65
G1 F1200 X93.367 Y123.349 E186.4259
G0 F6000 X92.802 Y123.349
G1 F1200 X66.649 Y97.196 E187.65606
G0 F6000 X66.649 Y97.762
G1 F1200 X92.236 Y123.349 E188.8596
G0 F6000 X91.67 Y123.349
G1 F1200 X66.649 Y98.328 E190.03651
G0 F6000 X66.649 Y98.893
G1 F1200 X91.105 Y123.349 E191.18684
G0 F6000 X90.539 Y123.349
G1 F1200 X66.649 Y99.459 E192.31055
G0 F6000 X66.649 Y100.025
G1 F1200 X89.973 Y123.349 E193.40764
G0 F6000 X89.407 Y123.349
G1 F1200 X66.649 Y100.59 E194.47813
G0 F6000 X66.649 Y101.156
G1 F1200 X88.842 Y123.349 E195.52202
G0 F6000 X88.276 Y123.349
G1 F1200 X66.649 Y101.722 E196.53929
G0 F6000 X66.649 Y102.287
G1 F1200 X87.71 Y123.349 E197.52996
G0 F6000 X87.145 Y123.349
G1 F1200 X66.649 Y102.853 E198.49403
G0 F6000 X66.649 Y103.419
G1 F1200 X86.579 Y123.349 E199.43148
G0 F6000 X86.013 Y123.349
G1 F1200 X66.649 Y103.985 E200.3423
G0 F6000 X66.649 Y104.55
G1 F1200 X85.448 Y123.349 E201.22655
G0 F6000 X84.882 Y123.349
G1 F1200 X66.649 Y105.116 E202.08417
G0 F6000 X66.649 Y105.682
G1 F1200 X84.316 Y123.349 E202.91517
G0 F6000 X83.751 Y123.349
G1 F1200 X66.649 Y106.247 E203.7196
G0 F6000 X66.649 Y106.813
G1 F1200 X83.185 Y123.349 E204.4974
G0 F6000 X82.619 Y123.349
G1 F1200 X66.649 Y107.379 E205.24858
G0 F6000 X66.649 Y107.944
G1 F1200 X82.054 Y123.349 E205.97318
G0 F6000 X81.488 Y123.349
G1 F1200 X66.649 Y108.51 E206.67117
G0 F6000 X66.649 Y109.076
G1 F1200 X80.922 Y123.349 E207.34252
G0 F6000 X80.357 Y123.349
G1 F1200 X66.649 Y109.641 E207.98731
G0 F6000 X66.649 Y110.207
G1 F1200 X79.791 Y123.349 E208.60546
G0 F6000 X79.225 Y123.349
G1 F1200 X66.649 Y110.773 E209.197
G0 F6000 X66.649 Y111.338
G1 F1200 X78.659 Y123.349 E209.76194
G0 F6000 X78.094 Y123.349
G1 F1200 X66.649 Y111.904 E210.30028
G0 F6000 X66.649 Y112.47
G1 F1200 X77.528 Y123.349 E210.81199
G0 F6000 X76.962 Y123.349
G1 F1200 X66.649 Y113.035 E211.29711
G0 F6000 X66.649 Y113.601
G1 F1200 X76.397 Y123.349 E211.75562
G0 F6000 X75.831 Y123.349
G1 F1200 X66.649 Y114.167 E212.18752
G0 F6000 X66.649 Y114.733
G1 F1200 X75.265 Y123.349 E212.59279
G0 F6000 X74.7 Y123.349
G1 F1200 X66.649 Y115.298 E212.97148
G0 F6000 X66.649 Y115.864
M104 S230
G1 F1200 X74.134 Y123.349 E213.32355
G0 F6000 X73.568 Y123.349
G1 F1200 X66.649 Y116.43 E213.649
G0 F6000 X66.649 Y116.995
G1 F1200 X73.003 Y123.349 E213.94787
G0 F6000 X72.437 Y123.349
G1 F1200 X66.649 Y117.561 E214.22012
G0 F6000 X66.649 Y118.127
G1 F1200 X71.871 Y123.349 E214.46575
G0 F6000 X71.306 Y123.349
G1 F1200 X66.649 Y118.692 E214.6848
G0 F6000 X66.649 Y119.258
G1 F1200 X70.74 Y123.349 E214.87723
G0 F6000 X70.174 Y123.349
G1 F1200 X66.649 Y119.824 E215.04303
G0 F6000 X66.649 Y120.389
G1 F1200 X69.609 Y123.349 E215.18226
G0 F6000 X69.043 Y123.349
G1 F1200 X66.649 Y120.955 E215.29487
G0 F6000 X66.649 Y121.521
G1 F1200 X68.477 Y123.349 E215.38085
G0 F6000 X67.911 Y123.349
G1 F1200 X66.649 Y122.086 E215.44024
G0 F6000 X66.649 Y122.652
G1 F1200 X67.346 Y123.349 E215.47302
G0 F6000 X66.78 Y123.349
G1 F1200 X66.649 Y123.218 E215.47918
G0 F6000 X66.3 Y123.218
G1 F2700 E210.47918
;MESH:NONMESH
G0 F300 X66.3 Y123.218 Z0.4
G0 F6000 X66.21 Y123.218
G0 X66.343 Y123.657
G0 X66.46 Y123.696
G0 X153.603 Y123.881
;TIME_ELAPSED:344.529417
;LAYER:1
M140 S60
M106 S85
;TYPE:WALL-INNER
