;FLAVOR:Marlin
;TIME:630
;Filament used: 0.272341m
;Layer height: 0.2
;MINX:99.2
;MINY:106.7
;MINZ:0.2
;MAXX:120.8
;MAXY:113.3
;MAXZ:10
;Generated with Cura_SteamEngine 4.3.0
M140 S70
M105
M190 S70
M104 S250
M105
M109 S250
M82 ;absolute extrusion mode
M201 X500.00 Y500.00 Z100.00 E5000.00 ;Setup machine max acceleration
M203 X500.00 Y500.00 Z10.00 E50.00 ;Setup machine max feedrate
M204 P500.00 R1000.00 T500.00 ;Setup Print/Retract/Travel acceleration
M205 X8.00 Y8.00 Z0.40 E5.00 ;Setup Jerk
M220 S100 ;Reset Feedrate
M221 S100 ;Reset Flowrate

G28 ;Home

G92 E0 ;Reset Extruder
G1 Z2.0 F3000 ;Move Z Axis up
G1 X10.1 Y20 Z0.28 F5000.0 ;Move to start position
G1 X10.1 Y200.0 Z0.28 F1500.0 E15 ;Draw the first line
G1 X10.4 Y200.0 Z0.28 F5000.0 ;Move to side a little
G1 X10.4 Y20 Z0.28 F1500.0 E30 ;Draw the second line
G92 E0 ;Reset Extruder
G1 Z2.0 F3000 ;Move Z Axis up

G92 E0
G92 E0
G1 F2700 E-5
;LAYER_COUNT:50
;LAYER:0
M107
;MESH:9fac1462-39b8-4a56-a581-c05c6e05e5d8.stl
G0 F6000 X116.1 Y112.9 Z0.2
;TYPE:WALL-INNER
G1 F2700 E0
G1 F1200 X116.1 Y107.1 E0.19291
G1 X120.4 Y107.1 E0.33593
G1 X120.4 Y112.9 E0.52884
G1 X116.1 Y112.9 E0.67185
G0 F6000 X112.974 Y112.907
G0 X104.9 Y112.9
G1 F1200 X99.6 Y112.9 E0.84813
G1 X99.6 Y107.1 E1.04104
G1 X104.9 Y107.1 E1.21732
G1 X104.9 Y112.9 E1.41023
G0 F6000 X105.3 Y112.7
;TYPE:WALL-OUTER
G1 F1200 X115.7 Y112.7 E1.75614
G1 X115.7 Y107.3 E1.93574
G1 X105.3 Y107.3 E2.28165
G1 X105.3 Y112.7 E2.46125
G1 F2700 E-2.53875
G0 F6000 X105 Y112.7
G0 X99.47 Y113.03
G0 X99.2 Y113.3
G1 F2700 E2.46125
G1 F1200 X99.2 Y106.7 E2.68077
G1 X120.8 Y106.7 E3.39919
G1 X120.8 Y113.3 E3.6187
G1 X99.2 Y113.3 E4.33712
G0 F6000 X99.47 Y113.03
G0 X99.71 Y112.51
G0 X99.99 Y112.51
;TYPE:SKIN
G1 F1200 X99.99 Y107.49 E4.50409
G1 X104.51 Y107.49 E4.65442
G1 X104.51 Y112.51 E4.82139
G1 X99.99 Y112.51 E4.97172
G0 F6000 X100.469 Y112.349
G1 F1200 X100.149 Y112.029 E4.98678
G0 F6000 X100.149 Y111.463
G1 F1200 X101.035 Y112.349 E5.02845
G0 F6000 X101.601 Y112.349
G1 F1200 X100.149 Y110.897 E5.09675
G0 F6000 X100.149 Y110.331
G1 F1200 X102.167 Y112.349 E5.19167
G0 F6000 X102.732 Y112.349
G1 F1200 X100.149 Y109.766 E5.31317
G0 F6000 X100.149 Y109.2
G1 F1200 X103.298 Y112.349 E5.46129
G0 F6000 X103.864 Y112.349
G1 F1200 X100.149 Y108.634 E5.63603
G0 F6000 X100.149 Y108.069
G1 F1200 X104.35 Y112.27 E5.83363
G0 F6000 X104.35 Y111.704
G1 F1200 X100.295 Y107.649 E6.02436
G0 F6000 X100.861 Y107.649
G1 F1200 X104.35 Y111.138 E6.18848
G0 F6000 X104.35 Y110.573
G1 F1200 X101.426 Y107.649 E6.32601
G0 F6000 X101.992 Y107.649
G1 F1200 X104.35 Y110.007 E6.43693
G0 F6000 X104.35 Y109.441
G1 F1200 X102.558 Y107.649 E6.52122
G0 F6000 X103.123 Y107.649
G1 F1200 X104.35 Y108.876 E6.57893
G0 F6000 X104.35 Y108.31
G1 F1200 X103.689 Y107.649 E6.61002
G0 F6000 X104.255 Y107.649
G1 F1200 X104.35 Y107.744 E6.61449
G0 F6000 X104.79 Y107.744
G0 X105.072 Y107.072
G0 X115.928 Y107.072
G0 X116.49 Y107.21
G0 X116.49 Y107.49
M104 S230
G1 F1200 X120.01 Y107.49 E6.73157
G1 X120.01 Y112.51 E6.89853
G1 X116.49 Y112.51 E7.01561
G1 X116.49 Y107.49 E7.18257
G0 F6000 X116.49 Y107.21
G0 X120.218 Y107.282
G0 X120.29 Y107.97
G0 X119.849 Y107.97
G1 F1200 X119.53 Y107.65 E7.1976
G0 F6000 X118.964 Y107.65
G1 F1200 X119.849 Y108.535 E7.23923
G0 F6000 X119.849 Y109.101
G1 F1200 X118.398 Y107.65 E7.30748
G0 F6000 X117.832 Y107.65
G1 F1200 X119.849 Y109.667 E7.40235
G0 F6000 X119.849 Y110.232
G1 F1200 X117.267 Y107.65 E7.5238
G0 F6000 X116.701 Y107.65
G1 F1200 X119.849 Y110.798 E7.67187
G0 F6000 X119.849 Y111.364
G1 F1200 X116.649 Y108.164 E7.82239
G0 F6000 X116.649 Y108.729
G1 F1200 X119.849 Y111.93 E7.97293
G0 F6000 X119.703 Y112.35
G1 F1200 X116.649 Y109.295 E8.11661
G0 F6000 X116.649 Y109.861
G1 F1200 X119.138 Y112.35 E8.23368
G0 F6000 X118.572 Y112.35
G1 F1200 X116.649 Y110.426 E8.32416
G0 F6000 X116.649 Y110.992
G1 F1200 X118.006 Y112.35 E8.38801
G0 F6000 X117.441 Y112.35
G1 F1200 X116.649 Y111.558 E8.42527
G0 F6000 X116.649 Y112.123
G1 F1200 X116.875 Y112.35 E8.43592
G0 F6000 X116.875 Y112.79
G0 X115.939 Y113
G0 X115.821 Y112.992
;TYPE:SKIN
G1 F1200 X115.544 Y112.999 E8.44184
G1 X105.362 Y112.999 E8.6595
G1 X105.131 Y113.051 E8.66456
G0 F6000 X105.204 Y113
G0 X105.072 Y112.928
G0 X105.072 Y107.072
G0 X105.144 Y107
G0 X105.101 Y107.081
G1 F1200 X105.302 Y106.999 E8.66912
G1 X115.767 Y106.999 E8.8891
G0 F6000 X116.028 Y107.028
;MESH:NONMESH
G0 F300 X116.028 Y107.028 Z0.4
G0 F6000 X116.1 Y112.9
;TIME_ELAPSED:22.939382
;LAYER:1
M140 S60
M106 S85
;TYPE:WALL-INNER
;MESH:9fac1462-39b8-4a56-a581-c05c6e05e5d8.stl
G1 F1752.9 X116.1 Y107.1 E9.08201
G1 X120.4 Y107.1 E9.22503
G1 X120.4 Y112.9 E9.41794
G1 X116.1 Y112.9 E9.56096
G0 F10500 X112.974 Y112.907
G0 X104.9 Y112.9
G1 F1752.9 X99.6 Y112.9 E9.73724
G1 X99.6 Y107.1 E9.93015
G1 X104.9 Y107.1 E10.10642
G1 X104.9 Y112.9 E10.29933
G0 F10500 X105.3 Y112.7
;TYPE:WALL-OUTER
G1 F1752.9 X115.7 Y112.7 E10.64524
G1 X115.7 Y107.3 E10.82484
G1 X105.3 Y107.3 E11.17075
G1 X105.3 Y112.7 E11.35035
G1 F2700 E6.35035
G0 F10500 X105 Y112.7
G0 X99.47 Y113.03
G0 X99.2 Y113.3
G1 F2700 E11.35035
G1 F1752.9 X99.2 Y106.7 E11.56987
G1 X120.8 Y106.7 E12.28829
G1 X120.8 Y113.3 E12.50781
G1 X99.2 Y113.3 E13.22623
G0 F10500 X99.47 Y113.03
G0 X99.71 Y112.51
G0 X99.99 Y112.51
;TYPE:SKIN
G1 F1752.9 X99.99 Y107.49 E13.39319
G1 X104.51 Y107.49 E13.54353
G1 X104.51 Y112.51 E13.71049
G1 X99.99 Y112.51 E13.86083
G0 F10500 X99.71 Y112.51
G0 X99.774 Y112.697
G0 X103.742 Y112.79
G0 X103.742 Y112.349
G1 F1752.9 X104.349 Y111.741 E13.8894
G0 F10500 X104.349 Y111.176
G1 F1752.9 X103.176 Y112.349 E13.94458
G0 F10500 X102.611 Y112.349
G1 F1752.9 X104.349 Y110.61 E14.02635
G0 F10500 X104.349 Y110.044
G1 F1752.9 X102.045 Y112.349 E14.13475
G0 F10500 X101.479 Y112.349
G1 F1752.9 X104.349 Y109.479 E14.26974
G0 F10500 X104.349 Y108.913
G1 F1752.9 X100.914 Y112.349 E14.43134
G0 F10500 X100.348 Y112.349
G1 F1752.9 X104.349 Y108.347 E14.61956
G0 F10500 X104.349 Y107.782
G1 F1752.9 X100.15 Y111.981 E14.81707
G0 F10500 X100.15 Y111.415
G1 F1752.9 X103.917 Y107.649 E14.99423
G0 F10500 X103.351 Y107.649
G1 F1752.9 X100.15 Y110.85 E15.1448
G0 F10500 X100.15 Y110.284
G1 F1752.9 X102.785 Y107.649 E15.26874
G0 F10500 X102.22 Y107.649
G1 F1752.9 X100.15 Y109.718 E15.36608
G0 F10500 X100.15 Y109.153
G1 F1752.9 X101.654 Y107.649 E15.43682
G0 F10500 X101.088 Y107.649
G1 F1752.9 X100.15 Y108.587 E15.48095
G0 F10500 X100.15 Y108.021
G1 F1752.9 X100.523 Y107.649 E15.49847
G0 F10500 X100.523 Y107.21
G0 X105.072 Y107.072
G0 X115.928 Y107.072
G0 X116.49 Y107.21
G0 X116.49 Y107.49
G1 F1752.9 X120.01 Y107.49 E15.61554
G1 X120.01 Y112.51 E15.78251
G1 X116.49 Y112.51 E15.89958
G1 X116.49 Y107.49 E16.06655
G0 F10500 X116.649 Y107.927
G1 F1752.9 X116.927 Y107.649 E16.07963
G0 F10500 X117.492 Y107.649
G1 F1752.9 X116.649 Y108.493 E16.1193
G0 F10500 X116.649 Y109.059
G1 F1752.9 X118.058 Y107.649 E16.1856
G0 F10500 X118.624 Y107.649
G1 F1752.9 X116.649 Y109.624 E16.2785
G0 F10500 X116.649 Y110.19
G1 F1752.9 X119.189 Y107.649 E16.398
G0 F10500 X119.755 Y107.649
G1 F1752.9 X116.649 Y110.756 E16.54412
G0 F10500 X116.649 Y111.321
G1 F1752.9 X119.848 Y108.122 E16.69459
G0 F10500 X119.848 Y108.687
G1 F1752.9 X116.649 Y111.887 E16.84508
G0 F10500 X116.752 Y112.35
G1 F1752.9 X119.848 Y109.253 E16.99073
G0 F10500 X119.848 Y109.819
G1 F1752.9 X117.318 Y112.35 E17.10976
G0 F10500 X117.883 Y112.35
G1 F1752.9 X119.848 Y110.385 E17.20219
G0 F10500 X119.848 Y110.95
G1 F1752.9 X118.449 Y112.35 E17.26801
G0 F10500 X119.015 Y112.35
G1 F1752.9 X119.848 Y111.516 E17.30722
G0 F10500 X119.848 Y112.082
G1 F1752.9 X119.58 Y112.35 E17.31983
G0 F10500 X119.58 Y112.79
G0 X116 Y112.88
G0 X115.816 Y113.002
;TYPE:SKIN
G1 F1752.9 X115.536 Y112.999 E17.32584
G1 X105.354 Y112.999 E17.5445
G1 X105.128 Y112.942 E17.54951
G0 F10500 X105.196 Y113
G0 X105.072 Y112.928
G0 X105.072 Y107.072
G0 X105.29 Y107
G0 X105.415 Y106.999
G1 F1752.9 X105.698 Y106.999 E17.5556
G1 X115.597 Y106.999 E17.76867
G1 X115.846 Y107.032 E17.77408
G0 F10500 X115.755 Y107
G0 X105.257 Y107
G0 X105.257 Y106.874
G1 F1752.9 X105.059 Y107.072 E17.77873
G0 F10500 X104.818 Y107.3
;MESH:NONMESH
G0 F300 X104.818 Y107.3 Z0.6
G0 F10500 X105.072 Y112.928
G0 X116.1 Y112.9
;TIME_ELAPSED:38.648452
;LAYER:2
M106 S170
;TYPE:WALL-INNER
;MESH:9fac1462-39b8-4a56-a581-c05c6e05e5d8.stl
G1 F1720.1 X116.1 Y107.1 E17.97164
G1 X120.4 Y107.1 E18.11466
G1 X120.4 Y112.9 E18.30757
G1 X116.1 Y112.9 E18.45059
G0 F15000 X112.974 Y112.907
G0 X104.9 Y112.9
G1 F1720.1 X99.6 Y112.9 E18.62687
G1 X99.6 Y107.1 E18.81978
G1 X104.9 Y107.1 E18.99605
G1 X104.9 Y112.9 E19.18896
G0 F15000 X105.3 Y112.7
;TYPE:WALL-OUTER
G1 F1720.1 X115.7 Y112.7 E19.53487
G1 X115.7 Y107.3 E19.71447
G1 X105.3 Y107.3 E20.06038
G1 X105.3 Y112.7 E20.23998
G1 F2700 E15.23998
G0 F15000 X105 Y112.7
G0 X99.47 Y113.03
G0 X99.2 Y113.3
G1 F2700 E20.23998
G1 F1720.1 X99.2 Y106.7 E20.4595
G1 X120.8 Y106.7 E21.17792
G1 X120.8 Y113.3 E21.39744
G1 X99.2 Y113.3 E22.11586
G0 F15000 X99.47 Y113.03
G0 X99.71 Y112.51
G0 X99.99 Y112.51
;TYPE:SKIN
G1 F1720.1 X99.99 Y107.49 E22.28282
G1 X104.51 Y107.49 E22.43316
G1 X104.51 Y112.51 E22.60012
G1 X99.99 Y112.51 E22.75046
G0 F15000 X100.469 Y112.349
G1 F1720.1 X100.149 Y112.029 E22.76551
G0 F15000 X100.149 Y111.463
G1 F1720.1 X101.035 Y112.349 E22.80719
G0 F15000 X101.601 Y112.349
G1 F1720.1 X100.149 Y110.897 E22.87548
G0 F15000 X100.149 Y110.331
G1 F1720.1 X102.167 Y112.349 E22.9704
G0 F15000 X102.732 Y112.349
G1 F1720.1 X100.149 Y109.766 E23.0919
G0 F15000 X100.149 Y109.2
G1 F1720.1 X103.298 Y112.349 E23.24002
G0 F15000 X103.864 Y112.349
G1 F1720.1 X100.149 Y108.634 E23.41476
G0 F15000 X100.149 Y108.069
G1 F1720.1 X104.35 Y112.27 E23.61236
G0 F15000 X104.35 Y111.704
G1 F1720.1 X100.295 Y107.649 E23.8031
G0 F15000 X100.861 Y107.649
G1 F1720.1 X104.35 Y111.138 E23.96721
G0 F15000 X104.35 Y110.573
G1 F1720.1 X101.426 Y107.649 E24.10475
G0 F15000 X101.992 Y107.649
G1 F1720.1 X104.35 Y110.007 E24.21566
G0 F15000 X104.35 Y109.441
G1 F1720.1 X102.558 Y107.649 E24.29995
G0 F15000 X103.123 Y107.649
G1 F1720.1 X104.35 Y108.876 E24.35766
G0 F15000 X104.35 Y108.31
G1 F1720.1 X103.689 Y107.649 E24.38876
G0 F15000 X104.255 Y107.649
G1 F1720.1 X104.35 Y107.744 E24.39322
G0 F15000 X104.79 Y107.744
G0 X105.072 Y107.072
G0 X115.928 Y107.072
G0 X116.49 Y107.21
G0 X116.49 Y107.49
G1 F1720.1 X120.01 Y107.49 E24.5103
G1 X120.01 Y112.51 E24.67727
G1 X116.49 Y112.51 E24.79434
G1 X116.49 Y107.49 E24.96131
G0 F15000 X116.49 Y107.21
G0 X120.218 Y107.282
G0 X120.29 Y107.97
G0 X119.849 Y107.97
G1 F1720.1 X119.53 Y107.65 E24.97634
G0 F15000 X118.964 Y107.65
G1 F1720.1 X119.849 Y108.535 E25.01796
G0 F15000 X119.849 Y109.101
G1 F1720.1 X118.398 Y107.65 E25.08621
G0 F15000 X117.832 Y107.65
G1 F1720.1 X119.849 Y109.667 E25.18109
G0 F15000 X119.849 Y110.232
G1 F1720.1 X117.267 Y107.65 E25.30254
G0 F15000 X116.701 Y107.65
G1 F1720.1 X119.849 Y110.798 E25.45061
G0 F15000 X119.849 Y111.364
G1 F1720.1 X116.649 Y108.164 E25.60113
G0 F15000 X116.649 Y108.729
G1 F1720.1 X119.849 Y111.93 E25.75167
G0 F15000 X119.703 Y112.35
G1 F1720.1 X116.649 Y109.295 E25.89534
G0 F15000 X116.649 Y109.861
G1 F1720.1 X119.138 Y112.35 E26.01242
G0 F15000 X118.572 Y112.35
G1 F1720.1 X116.649 Y110.426 E26.10289
G0 F15000 X116.649 Y110.992
G1 F1720.1 X118.006 Y112.35 E26.16675
G0 F15000 X117.441 Y112.35
G1 F1720.1 X116.649 Y111.558 E26.204
G0 F15000 X116.649 Y112.123
G1 F1720.1 X116.875 Y112.35 E26.21465
G0 F15000 X116.875 Y112.79
G0 X115.939 Y113
G0 X115.821 Y112.992
;TYPE:SKIN
G1 F1720.1 X115.544 Y112.999 E26.22058
G1 X105.362 Y112.999 E26.43823
G1 X105.131 Y113.051 E26.44329
G0 F15000 X105.204 Y113
G0 X105.072 Y112.928
G0 X105.072 Y107.072
G0 X105.144 Y107
G0 X105.101 Y107.081
G1 F1720.1 X105.302 Y106.999 E26.44786
G1 X115.767 Y106.999 E26.66784
G0 F15000 X116.028 Y107.028
;MESH:NONMESH
G0 F300 X116.028 Y107.028 Z0.8
G0 F15000 X116.1 Y112.9
;TIME_ELAPSED:53.976629
;LAYER:3
M106 S255
;TYPE:WALL-INNER
;MESH:9fac1462-39b8-4a56-a581-c05c6e05e5d8.stl
G1 F1726.5 X116.1 Y107.1 E26.86075
G1 X120.4 Y107.1 E27.00377
G1 X120.4 Y112.9 E27.19667
G1 X116.1 Y112.9 E27.33969
G0 F15000 X112.974 Y112.907
G0 X104.9 Y112.9
G1 F1726.5 X99.6 Y112.9 E27.51597
G1 X99.6 Y107.1 E27.70888
G1 X104.9 Y107.1 E27.88516
G1 X104.9 Y112.9 E28.07807
G0 F15000 X105.3 Y112.7
;TYPE:WALL-OUTER
G1 F1726.5 X115.7 Y112.7 E28.42397
G1 X115.7 Y107.3 E28.60358
G1 X105.3 Y107.3 E28.94948
G1 X105.3 Y112.7 E29.12909
G1 F2700 E24.12909
G0 F15000 X105 Y112.7
G0 X99.47 Y113.03
G0 X99.2 Y113.3
G1 F2700 E29.12909
G1 F1726.5 X99.2 Y106.7 E29.3486
G1 X120.8 Y106.7 E30.06702
G1 X120.8 Y113.3 E30.28654
G1 X99.2 Y113.3 E31.00496
G0 F15000 X99.47 Y113.03
G0 X99.71 Y112.51
G0 X99.99 Y112.51
;TYPE:SKIN
G1 F1726.5 X99.99 Y107.49 E31.17193
G1 X104.51 Y107.49 E31.32226
G1 X104.51 Y112.51 E31.48923
G1 X99.99 Y112.51 E31.63956
G0 F15000 X99.71 Y112.51
G0 X99.774 Y112.697
G0 X103.742 Y112.79
G0 X103.742 Y112.349
G1 F1726.5 X104.349 Y111.741 E31.66814
G0 F15000 X104.349 Y111.176
G1 F1726.5 X103.176 Y112.349 E31.72331
G0 F15000 X102.611 Y112.349
G1 F1726.5 X104.349 Y110.61 E31.80509
G0 F15000 X104.349 Y110.044
G1 F1726.5 X102.045 Y112.349 E31.91348
G0 F15000 X101.479 Y112.349
G1 F1726.5 X104.349 Y109.479 E32.04848
G0 F15000 X104.349 Y108.913
G1 F1726.5 X100.914 Y112.349 E32.21007
G0 F15000 X100.348 Y112.349
G1 F1726.5 X104.349 Y108.347 E32.39829
G0 F15000 X104.349 Y107.782
G1 F1726.5 X100.15 Y111.981 E32.5958
G0 F15000 X100.15 Y111.415
G1 F1726.5 X103.917 Y107.649 E32.77296
G0 F15000 X103.351 Y107.649
G1 F1726.5 X100.15 Y110.85 E32.92353
G0 F15000 X100.15 Y110.284
G1 F1726.5 X102.785 Y107.649 E33.04747
G0 F15000 X102.22 Y107.649
G1 F1726.5 X100.15 Y109.718 E33.14482
G0 F15000 X100.15 Y109.153
G1 F1726.5 X101.654 Y107.649 E33.21556
G0 F15000 X101.088 Y107.649
G1 F1726.5 X100.15 Y108.587 E33.25968
G0 F15000 X100.15 Y108.021
G1 F1726.5 X100.523 Y107.649 E33.2772
G0 F15000 X100.523 Y107.21
G0 X105.072 Y107.072
G0 X115.928 Y107.072
G0 X116.49 Y107.21
G0 X116.49 Y107.49
G1 F1726.5 X120.01 Y107.49 E33.39428
G1 X120.01 Y112.51 E33.56124
G1 X116.49 Y112.51 E33.67832
G1 X116.49 Y107.49 E33.84528
G0 F15000 X116.649 Y107.927
G1 F1726.5 X116.927 Y107.649 E33.85836
G0 F15000 X117.492 Y107.649
G1 F1726.5 X116.649 Y108.493 E33.89804
G0 F15000 X116.649 Y109.059
G1 F1726.5 X118.058 Y107.649 E33.96433
G0 F15000 X118.624 Y107.649
G1 F1726.5 X116.649 Y109.624 E34.05723
G0 F15000 X116.649 Y110.19
G1 F1726.5 X119.189 Y107.649 E34.17673
G0 F15000 X119.755 Y107.649
G1 F1726.5 X116.649 Y110.756 E34.32285
G0 F15000 X116.649 Y111.321
G1 F1726.5 X119.848 Y108.122 E34.47332
G0 F15000 X119.848 Y108.687
G1 F1726.5 X116.649 Y111.887 E34.62382
G0 F15000 X116.752 Y112.35
G1 F1726.5 X119.848 Y109.253 E34.76947
G0 F15000 X119.848 Y109.819
G1 F1726.5 X117.318 Y112.35 E34.88849
G0 F15000 X117.883 Y112.35
G1 F1726.5 X119.848 Y110.385 E34.98092
G0 F15000 X119.848 Y110.95
G1 F1726.5 X118.449 Y112.35 E35.04675
G0 F15000 X119.015 Y112.35
G1 F1726.5 X119.848 Y111.516 E35.08595
G0 F15000 X119.848 Y112.082
G1 F1726.5 X119.58 Y112.35 E35.09856
G0 F15000 X119.58 Y112.79
G0 X116 Y112.88
G0 X115.816 Y113.002
;TYPE:SKIN
G1 F1726.5 X115.536 Y112.999 E35.10457
G1 X105.354 Y112.999 E35.32324
G1 X105.128 Y112.942 E35.32824
G0 F15000 X105.196 Y113
G0 X105.072 Y112.928
G0 X105.072 Y107.072
G0 X105.29 Y107
G0 X105.415 Y106.999
G1 F1726.5 X105.698 Y106.999 E35.33433
G1 X115.597 Y106.999 E35.5474
G1 X115.846 Y107.032 E35.55281
G0 F15000 X115.755 Y107
G0 X105.257 Y107
G0 X105.257 Y106.874
G1 F1726.5 X105.059 Y107.072 E35.55747
G0 F15000 X104.818 Y107.3
;MESH:NONMESH
G0 F300 X104.818 Y107.3 Z1
G0 F15000 X105.072 Y112.928
G0 X116.1 Y112.9
;TIME_ELAPSED:69.864229
;LAYER:4
;TYPE:WALL-INNER
;MESH:9fac1462-39b8-4a56-a581-c05c6e05e5d8.stl
G1 F936.6 X116.1 Y107.1 E35.75038
G1 X120.4 Y107.1 E35.8934
G1 X120.4 Y112.9 E36.0863
G1 X116.1 Y112.9 E36.22932
G0 F15000 X112.974 Y112.907
G0 X104.9 Y112.9
G1 F936.6 X99.6 Y112.9 E36.4056
G1 X99.6 Y107.1 E36.59851
G1 X104.9 Y107.1 E36.77479
G1 X104.9 Y112.9 E36.9677
G0 F15000 X105.3 Y112.7
;TYPE:WALL-OUTER
G1 F936.6 X115.7 Y112.7 E37.3136
