;FLAVOR:Marlin
;TIME:2588
;Filament used: 2.75086m
;Layer height: 0.2
;MINX:66.7
;MINY:96.7
;MINZ:0.2
;MAXX:153.3
;MAXY:123.3
;MAXZ:18
;Generated with Cura_SteamEngine 4.3.0
M140 S70
M105
M190 S70
M104 S250
M105
M109 S250
M82 ;absolute extrusion mode
M201 X500.00 Y500.00 Z100.00 E5000.00 ;Setup machine max acceleration
M203 X500.00 Y500.00 Z10.00 E50.00 ;Setup machine max feedrate
M204 P500.00 R1000.00 T500.00 ;Setup Print/Retract/Travel acceleration
M205 X8.00 Y8.00 Z0.40 E5.00 ;Setup Jerk
M220 S100 ;Reset Feedrate
M221 S100 ;Reset Flowrate

G28 ;Home

G92 E0 ;Reset Extruder
G1 Z2.0 F3000 ;Move Z Axis up
G1 X10.1 Y20 Z0.28 F5000.0 ;Move to start position
G1 X10.1 Y200.0 Z0.28 F1500.0 E15 ;Draw the first line
G1 X10.4 Y200.0 Z0.28 F5000.0 ;Move to side a little
G1 X10.4 Y20 Z0.28 F1500.0 E30 ;Draw the second line
G92 E0 ;Reset Extruder
G1 Z2.0 F3000 ;Move Z Axis up

G92 E0
G92 E0
G1 F2700 E-5
;LAYER_COUNT:90
;LAYER:0
M107
;MESH:dd085485-d49f-48ea-adec-2b59bd1713db.stl
G0 F6000 X152.603 Y122.881 Z0.2
;TYPE:WALL-INNER
G1 F2700 E0
G1 F1200 X152.472 Y122.898 E0.00439
G1 X67.973 Y122.9 E2.81484
G1 X67.54 Y122.9 E2.82924
G1 X67.397 Y122.881 E2.83404
G1 X67.305 Y122.843 E2.83735
G1 X67.221 Y122.779 E2.84086
G1 X67.157 Y122.695 E2.84438
G1 X67.119 Y122.603 E2.84769
G1 X67.102 Y122.472 E2.85208
G1 X67.1 Y97.54 E3.68132
G1 X67.119 Y97.397 E3.68612
G1 X67.157 Y97.305 E3.68943
G1 X67.221 Y97.221 E3.69294
G1 X67.305 Y97.157 E3.69646
G1 X67.397 Y97.119 E3.69977
G1 X67.528 Y97.102 E3.70416
G1 X152.027 Y97.1 E6.51461
G1 X152.46 Y97.1 E6.52901
G1 X152.603 Y97.119 E6.53381
G1 X152.695 Y97.157 E6.53712
G1 X152.779 Y97.221 E6.54063
G1 X152.843 Y97.305 E6.54414
G1 X152.881 Y97.397 E6.54745
G1 X152.898 Y97.527 E6.55182
G1 X152.9 Y122.46 E7.38109
G1 X152.881 Y122.603 E7.38589
G1 X152.843 Y122.695 E7.3892
G1 X152.779 Y122.779 E7.39271
G1 X152.695 Y122.843 E7.39622
G1 X152.603 Y122.881 E7.39953
G0 F6000 X152.704 Y123.272
;TYPE:WALL-OUTER
G1 F1200 X152.498 Y123.298 E7.40644
G1 X67.973 Y123.3 E10.21775
G1 X67.511 Y123.3 E10.23312
G1 X67.296 Y123.272 E10.24033
G1 X67.101 Y123.191 E10.24735
G1 X66.936 Y123.064 E10.25428
G1 X66.809 Y122.899 E10.2612
G1 X66.728 Y122.704 E10.26823
G1 X66.702 Y122.498 E10.27513
G1 X66.7 Y97.511 E11.1062
G1 X66.728 Y97.296 E11.11342
G1 X66.809 Y97.101 E11.12044
G1 X66.936 Y96.936 E11.12736
G1 X67.101 Y96.809 E11.13429
G1 X67.296 Y96.728 E11.14131
G1 X67.502 Y96.702 E11.14822
G1 X152.027 Y96.7 E13.95953
G1 X152.489 Y96.7 E13.9749
G1 X152.704 Y96.728 E13.98211
G1 X152.899 Y96.809 E13.98913
G1 X153.064 Y96.936 E13.99606
G1 X153.191 Y97.101 E14.00298
G1 X153.272 Y97.296 E14.01
G1 X153.298 Y97.5 E14.01684
G1 X153.3 Y122.489 E14.84798
G1 X153.272 Y122.704 E14.85519
G1 X153.191 Y122.899 E14.86222
G1 X153.064 Y123.064 E14.86914
G1 X152.899 Y123.191 E14.87607
G1 X152.704 Y123.272 E14.88309
G0 F6000 X152.592 Y122.847
G0 X152.501 Y122.5
;TYPE:SKIN
G1 F1200 X152.446 Y122.508 E14.88494
G1 X67.973 Y122.51 E17.69452
G1 X67.559 Y122.51 E17.70829
G1 X67.502 Y122.503 E17.7102
G1 X67.492 Y122.445 E17.71216
G1 X67.49 Y97.559 E18.53987
G1 X67.497 Y97.502 E18.54178
G1 X67.554 Y97.492 E18.54371
G1 X152.027 Y97.49 E21.35329
G1 X152.441 Y97.49 E21.36706
G1 X152.498 Y97.497 E21.36897
G1 X152.501 Y97.501 E21.36914
G1 X152.508 Y97.551 E21.37081
G1 X152.51 Y122.43 E22.19829
G1 X152.501 Y122.5 E22.20064
G0 F6000 X152.722 Y122.671
G0 X152.693 Y97.39
G0 X152.556 Y97.323
G0 X151.956 Y97.21
G0 X151.956 Y97.65
G1 F1200 X152.348 Y98.042 E22.21908
G0 F6000 X152.348 Y98.608
G1 F1200 X151.39 Y97.65 E22.26414
G0 F6000 X150.825 Y97.65
G1 F1200 X152.348 Y99.173 E22.33578
G0 F6000 X152.348 Y99.739
G1 F1200 X150.259 Y97.65 E22.43404
G0 F6000 X149.693 Y97.65
G1 F1200 X152.348 Y100.305 E22.55892
G0 F6000 X152.348 Y100.87
G1 F1200 X149.128 Y97.65 E22.71038
G0 F6000 X148.562 Y97.65
G1 F1200 X152.348 Y101.436 E22.88846
G0 F6000 X152.348 Y102.002
G1 F1200 X147.996 Y97.65 E23.09317
G0 F6000 X147.431 Y97.65
G1 F1200 X152.348 Y102.567 E23.32445
G0 F6000 X152.348 Y103.133
G1 F1200 X146.865 Y97.65 E23.58235
G0 F6000 X146.299 Y97.65
G1 F1200 X152.348 Y103.699 E23.86688
G0 F6000 X152.348 Y104.265
G1 F1200 X145.734 Y97.65 E24.178
G0 F6000 X145.168 Y97.65
G1 F1200 X152.348 Y104.83 E24.51573
G0 F6000 X152.348 Y105.396
G1 F1200 X144.602 Y97.65 E24.88008
G0 F6000 X144.036 Y97.65
G1 F1200 X152.348 Y105.962 E25.27105
G0 F6000 X152.348 Y106.527
G1 F1200 X143.471 Y97.65 E25.68859
G0 F6000 X142.905 Y97.65
G1 F1200 X152.348 Y107.093 E26.13276
G0 F6000 X152.348 Y107.659
G1 F1200 X142.339 Y97.65 E26.60356
G0 F6000 X141.774 Y97.65
G1 F1200 X152.348 Y108.224 E27.10093
G0 F6000 X152.348 Y108.79
G1 F1200 X141.208 Y97.65 E27.62492
G0 F6000 X140.642 Y97.65
G1 F1200 X152.348 Y109.356 E28.17553
G0 F6000 X152.348 Y109.921
G1 F1200 X140.077 Y97.65 E28.75272
G0 F6000 X139.511 Y97.65
G1 F1200 X152.348 Y110.488 E29.35656
G0 F6000 X152.348 Y111.053
G1 F1200 X138.945 Y97.65 E29.98699
G0 F6000 X138.38 Y97.65
G1 F1200 X152.348 Y111.619 E30.64403
G0 F6000 X152.348 Y112.185
G1 F1200 X137.814 Y97.65 E31.32769
G0 F6000 X137.248 Y97.65
G1 F1200 X152.348 Y112.751 E32.03797
G0 F6000 X152.348 Y113.316
G1 F1200 X136.683 Y97.65 E32.77483
G0 F6000 X136.117 Y97.65
G1 F1200 X152.348 Y113.882 E33.53831
G0 F6000 X152.348 Y114.448
G1 F1200 X135.551 Y97.65 E34.32841
G0 F6000 X134.985 Y97.65
G1 F1200 X152.348 Y115.013 E35.14511
G0 F6000 X152.348 Y115.579
G1 F1200 X134.42 Y97.65 E35.98841
G0 F6000 X133.854 Y97.65
G1 F1200 X152.348 Y116.145 E36.85834
G0 F6000 X152.348 Y116.71
G1 F1200 X133.288 Y97.65 E37.75486
G0 F6000 X132.723 Y97.65
G1 F1200 X152.348 Y117.276 E38.67798
G0 F6000 X152.348 Y117.842
G1 F1200 X132.157 Y97.65 E39.62773
G0 F6000 X131.591 Y97.65
G1 F1200 X152.348 Y118.407 E40.60408
G0 F6000 X152.348 Y118.973
G1 F1200 X131.026 Y97.65 E41.60702
G0 F6000 X130.46 Y97.65
G1 F1200 X152.348 Y119.539 E42.63659
G0 F6000 X152.348 Y120.104
G1 F1200 X129.894 Y97.65 E43.69276
G0 F6000 X129.329 Y97.65
G1 F1200 X152.348 Y120.67 E44.77552
G0 F6000 X152.348 Y121.236
G1 F1200 X128.763 Y97.65 E45.88491
G0 F6000 X128.197 Y97.65
G1 F1200 X152.348 Y121.801 E47.0209
G0 F6000 X152.329 Y122.347
G1 F1200 X127.632 Y97.65 E48.18257
G0 F6000 X127.066 Y97.65
G1 F1200 X151.763 Y122.347 E49.34424
G0 F6000 X151.197 Y122.347
G1 F1200 X126.5 Y97.65 E50.50592
G0 F6000 X125.935 Y97.65
G1 F1200 X150.632 Y122.347 E51.66759
G0 F6000 X150.066 Y122.347
G1 F1200 X125.369 Y97.65 E52.82926
G0 F6000 X124.803 Y97.65
G1 F1200 X149.5 Y122.347 E53.99093
G0 F6000 X148.935 Y122.347
G1 F1200 X124.237 Y97.65 E55.15262
G0 F6000 X123.672 Y97.65
G1 F1200 X148.369 Y122.347 E56.3143
G0 F6000 X147.803 Y122.347
G1 F1200 X123.106 Y97.65 E57.47597
G0 F6000 X122.54 Y97.65
G1 F1200 X147.238 Y122.347 E58.63766
G0 F6000 X146.672 Y122.347
G1 F1200 X121.975 Y97.65 E59.79933
G0 F6000 X121.409 Y97.65
G1 F1200 X146.106 Y122.347 E60.961
G0 F6000 X145.54 Y122.347
G1 F1200 X120.843 Y97.65 E62.12267
G0 F6000 X120.278 Y97.65
G1 F1200 X144.975 Y122.347 E63.28435
G0 F6000 X144.409 Y122.347
G1 F1200 X119.712 Y97.65 E64.44602
G0 F6000 X119.146 Y97.65
G1 F1200 X143.843 Y122.347 E65.60769
G0 F6000 X143.278 Y122.347
G1 F1200 X118.581 Y97.65 E66.76936
G0 F6000 X118.015 Y97.65
G1 F1200 X142.712 Y122.347 E67.93103
G0 F6000 X142.146 Y122.347
G1 F1200 X117.449 Y97.65 E69.0927
G0 F6000 X116.884 Y97.65
G1 F1200 X141.581 Y122.347 E70.25437
G0 F6000 X141.015 Y122.347
G1 F1200 X116.318 Y97.65 E71.41604
G0 F6000 X115.752 Y97.65
G1 F1200 X140.449 Y122.347 E72.57771
G0 F6000 X139.884 Y122.347
G1 F1200 X115.186 Y97.65 E73.73941
G0 F6000 X114.621 Y97.65
G1 F1200 X139.318 Y122.347 E74.90108
G0 F6000 X138.752 Y122.347
G1 F1200 X114.055 Y97.65 E76.06275
G0 F6000 X113.489 Y97.65
G1 F1200 X138.187 Y122.347 E77.22445
G0 F6000 X137.621 Y122.347
G1 F1200 X112.924 Y97.65 E78.38612
G0 F6000 X112.358 Y97.65
G1 F1200 X137.055 Y122.347 E79.54779
G0 F6000 X136.489 Y122.347
G1 F1200 X111.792 Y97.65 E80.70946
G0 F6000 X111.227 Y97.65
G1 F1200 X135.924 Y122.347 E81.87113
G0 F6000 X135.358 Y122.347
G1 F1200 X110.661 Y97.65 E83.0328
G0 F6000 X110.095 Y97.65
G1 F1200 X134.792 Y122.347 E84.19447
G0 F6000 X134.227 Y122.347
G1 F1200 X109.53 Y97.651 E85.35612
G0 F6000 X108.965 Y97.651
G1 F1200 X133.661 Y122.347 E86.51775
G0 F6000 X133.095 Y122.347
G1 F1200 X108.399 Y97.651 E87.67937
G0 F6000 X107.833 Y97.651
G1 F1200 X132.53 Y122.347 E88.84102
G0 F6000 X131.964 Y122.347
G1 F1200 X107.268 Y97.651 E90.00264
G0 F6000 X106.702 Y97.651
G1 F1200 X131.398 Y122.347 E91.16427
G0 F6000 X130.833 Y122.347
G1 F1200 X106.136 Y97.651 E92.32591
G0 F6000 X105.571 Y97.651
G1 F1200 X130.267 Y122.347 E93.48754
G0 F6000 X129.701 Y122.347
G1 F1200 X105.005 Y97.651 E94.64916
G0 F6000 X104.439 Y97.651
G1 F1200 X129.136 Y122.347 E95.81081
G0 F6000 X128.57 Y122.347
G1 F1200 X103.873 Y97.651 E96.97246
G0 F6000 X103.308 Y97.651
G1 F1200 X128.004 Y122.347 E98.13408
G0 F6000 X127.439 Y122.347
G1 F1200 X102.742 Y97.651 E99.29573
G0 F6000 X102.176 Y97.651
G1 F1200 X126.873 Y122.347 E100.45738
G0 F6000 X126.307 Y122.347
G1 F1200 X101.611 Y97.651 E101.619
G0 F6000 X101.045 Y97.651
G1 F1200 X125.741 Y122.347 E102.78062
G0 F6000 X125.176 Y122.347
G1 F1200 X100.479 Y97.651 E103.94227
G0 F6000 X99.914 Y97.651
G1 F1200 X124.61 Y122.347 E105.1039
G0 F6000 X124.044 Y122.347
G1 F1200 X99.348 Y97.651 E106.26552
G0 F6000 X98.782 Y97.651
G1 F1200 X123.479 Y122.347 E107.42717
G0 F6000 X122.913 Y122.347
G1 F1200 X98.217 Y97.651 E108.58879
G0 F6000 X97.651 Y97.651
G1 F1200 X122.347 Y122.347 E109.75042
G0 F6000 X121.782 Y122.347
G1 F1200 X97.085 Y97.651 E110.91206
G0 F6000 X96.52 Y97.651
G1 F1200 X121.216 Y122.347 E112.07369
G0 F6000 X120.65 Y122.347
G1 F1200 X95.954 Y97.651 E113.23531
G0 F6000 X95.388 Y97.651
G1 F1200 X120.085 Y122.347 E114.39696
G0 F6000 X119.519 Y122.347
G1 F1200 X94.823 Y97.651 E115.55858
G0 F6000 X94.257 Y97.651
G1 F1200 X118.953 Y122.347 E116.72021
G0 F6000 X118.388 Y122.347
G1 F1200 X93.691 Y97.651 E117.88186
G0 F6000 X93.125 Y97.651
G1 F1200 X117.822 Y122.347 E119.0435
G0 F6000 X117.256 Y122.347
G1 F1200 X92.56 Y97.651 E120.20513
G0 F6000 X91.994 Y97.651
G1 F1200 X116.691 Y122.347 E121.36677
G0 F6000 X116.125 Y122.347
G1 F1200 X91.428 Y97.651 E122.52842
G0 F6000 X90.863 Y97.651
G1 F1200 X115.559 Y122.347 E123.69005
G0 F6000 X114.993 Y122.347
G1 F1200 X90.297 Y97.651 E124.85167
G0 F6000 X89.731 Y97.651
G1 F1200 X114.428 Y122.347 E126.01332
G0 F6000 X113.862 Y122.347
G1 F1200 X89.166 Y97.651 E127.17494
G0 F6000 X88.6 Y97.651
G1 F1200 X113.296 Y122.347 E128.33657
G0 F6000 X112.731 Y122.347
G1 F1200 X88.034 Y97.651 E129.49821
G0 F6000 X87.469 Y97.651
G1 F1200 X112.165 Y122.347 E130.65984
G0 F6000 X111.599 Y122.347
G1 F1200 X86.903 Y97.651 E131.82146
G0 F6000 X86.337 Y97.651
G1 F1200 X111.034 Y122.347 E132.98311
G0 F6000 X110.468 Y122.347
G1 F1200 X85.772 Y97.651 E134.14473
G0 F6000 X85.206 Y97.651
G1 F1200 X109.903 Y122.348 E135.30641
G0 F6000 X109.337 Y122.348
G1 F1200 X84.64 Y97.651 E136.46808
G0 F6000 X84.074 Y97.651
G1 F1200 X108.772 Y122.348 E137.62977
G0 F6000 X108.206 Y122.348
G1 F1200 X83.509 Y97.651 E138.79144
G0 F6000 X82.943 Y97.651
G1 F1200 X107.64 Y122.348 E139.95311
G0 F6000 X107.075 Y122.348
G1 F1200 X82.377 Y97.651 E141.11481
G0 F6000 X81.812 Y97.651
G1 F1200 X106.509 Y122.348 E142.27648
G0 F6000 X105.943 Y122.348
G1 F1200 X81.246 Y97.651 E143.43815
G0 F6000 X80.68 Y97.651
G1 F1200 X105.378 Y122.348 E144.59985
G0 F6000 X104.812 Y122.348
G1 F1200 X80.115 Y97.651 E145.76152
G0 F6000 X79.549 Y97.651
G1 F1200 X104.246 Y122.348 E146.92319
G0 F6000 X103.68 Y122.348
G1 F1200 X78.983 Y97.651 E148.08486
G0 F6000 X78.418 Y97.651
G1 F1200 X103.115 Y122.348 E149.24653
G0 F6000 X102.549 Y122.348
G1 F1200 X77.852 Y97.651 E150.4082
G0 F6000 X77.286 Y97.651
G1 F1200 X101.983 Y122.348 E151.56987
G0 F6000 X101.418 Y122.348
G1 F1200 X76.721 Y97.651 E152.73154
G0 F6000 X76.155 Y97.651
G1 F1200 X100.852 Y122.348 E153.89321
G0 F6000 X100.286 Y122.348
G1 F1200 X75.589 Y97.651 E155.05489
G0 F6000 X75.024 Y97.651
G1 F1200 X99.721 Y122.348 E156.21656
G0 F6000 X99.155 Y122.348
G1 F1200 X74.458 Y97.651 E157.37823
G0 F6000 X73.892 Y97.651
G1 F1200 X98.589 Y122.348 E158.5399
G0 F6000 X98.024 Y122.348
G1 F1200 X73.326 Y97.651 E159.70159
G0 F6000 X72.761 Y97.651
G1 F1200 X97.458 Y122.348 E160.86326
G0 F6000 X96.892 Y122.348
G1 F1200 X72.195 Y97.651 E162.02494
G0 F6000 X71.629 Y97.651
G1 F1200 X96.327 Y122.348 E163.18663
G0 F6000 X95.761 Y122.348
G1 F1200 X71.064 Y97.651 E164.3483
G0 F6000 X70.498 Y97.651
G1 F1200 X95.195 Y122.348 E165.50997
G0 F6000 X94.629 Y122.348
G1 F1200 X69.932 Y97.651 E166.67164
G0 F6000 X69.367 Y97.651
G1 F1200 X94.064 Y122.348 E167.83332
G0 F6000 X93.498 Y122.348
G1 F1200 X68.801 Y97.651 E168.99499
G0 F6000 X68.235 Y97.651
G1 F1200 X92.932 Y122.348 E170.15666
G0 F6000 X92.367 Y122.348
G1 F1200 X67.67 Y97.651 E171.31833
G0 F6000 X67.65 Y98.197
G1 F1200 X91.801 Y122.348 E172.45432
G0 F6000 X91.235 Y122.348
G1 F1200 X67.65 Y98.763 E173.56368
G0 F6000 X67.65 Y99.328
G1 F1200 X90.67 Y122.348 E174.64647
G0 F6000 X90.104 Y122.348
G1 F1200 X67.65 Y99.894 E175.70264
G0 F6000 X67.65 Y100.46
G1 F1200 X89.538 Y122.348 E176.73219
G0 F6000 X88.973 Y122.348
G1 F1200 X67.65 Y101.025 E177.73515
G0 F6000 X67.65 Y101.591
G1 F1200 X88.407 Y122.348 E178.7115
G0 F6000 X87.841 Y122.348
G1 F1200 X67.65 Y102.157 E179.66122
G0 F6000 X67.65 Y102.722
G1 F1200 X87.276 Y122.348 E180.58437
G0 F6000 X86.71 Y122.348
G1 F1200 X67.65 Y103.288 E181.48089
G0 F6000 X67.65 Y103.854
G1 F1200 X86.144 Y122.348 E182.35079
G0 F6000 X85.579 Y122.348
G1 F1200 X67.65 Y104.419 E183.19412
G0 F6000 X67.65 Y104.985
G1 F1200 X85.013 Y122.348 E184.01082
G0 F6000 X84.447 Y122.348
G1 F1200 X67.65 Y105.551 E184.8009
G0 F6000 X67.65 Y106.116
G1 F1200 X83.881 Y122.348 E185.56438
G0 F6000 X83.316 Y122.348
G1 F1200 X67.65 Y106.682 E186.30126
G0 F6000 X67.65 Y107.248
G1 F1200 X82.75 Y122.348 E187.01152
G0 F6000 X82.184 Y122.348
G1 F1200 X67.65 Y107.813 E187.69518
G0 F6000 X67.65 Y108.379
G1 F1200 X81.619 Y122.348 E188.35224
G0 F6000 X81.053 Y122.348
G1 F1200 X67.65 Y108.945 E188.98267
G0 F6000 X67.65 Y109.511
G1 F1200 X80.487 Y122.348 E189.58649
G0 F6000 X79.922 Y122.348
G1 F1200 X67.651 Y110.077 E190.16368
G0 F6000 X67.651 Y110.643
G1 F1200 X79.356 Y122.348 E190.71424
G0 F6000 X78.79 Y122.348
G1 F1200 X67.651 Y111.208 E191.23821
G0 F6000 X67.651 Y111.774
G1 F1200 X78.225 Y122.348 E191.73558
G0 F6000 X77.659 Y122.348
G1 F1200 X67.651 Y112.34 E192.20633
G0 F6000 X67.651 Y112.905
G1 F1200 X77.093 Y122.348 E192.65047
G0 F6000 X76.528 Y122.348
G1 F1200 X67.651 Y113.471 E193.06802
G0 F6000 X67.651 Y114.037
G1 F1200 X75.962 Y122.348 E193.45894
G0 F6000 X75.396 Y122.348
M104 S230
G1 F1200 X67.651 Y114.602 E193.82327
G0 F6000 X67.651 Y115.168
G1 F1200 X74.83 Y122.348 E194.16097
G0 F6000 X74.265 Y122.348
G1 F1200 X67.651 Y115.734 E194.47207
G0 F6000 X67.651 Y116.299
G1 F1200 X73.699 Y122.348 E194.75657
G0 F6000 X73.133 Y122.348
G1 F1200 X67.651 Y116.865 E195.01445
G0 F6000 X67.651 Y117.431
G1 F1200 X72.568 Y122.348 E195.24574
G0 F6000 X72.002 Y122.348
G1 F1200 X67.651 Y117.997 E195.45039
G0 F6000 X67.651 Y118.562
G1 F1200 X71.436 Y122.348 E195.62845
G0 F6000 X70.871 Y122.348
G1 F1200 X67.651 Y119.128 E195.77991
G0 F6000 X67.651 Y119.694
G1 F1200 X70.305 Y122.348 E195.90475
G0 F6000 X69.739 Y122.348
G1 F1200 X67.651 Y120.259 E196.00298
G0 F6000 X67.651 Y120.825
G1 F1200 X69.174 Y122.348 E196.07462
G0 F6000 X68.608 Y122.348
G1 F1200 X67.651 Y121.391 E196.11963
G0 F6000 X67.651 Y121.956
G1 F1200 X68.042 Y122.348 E196.13805
G0 F6000 X68.043 Y122.699
G1 F2700 E191.13805
;MESH:NONMESH
G0 F300 X68.043 Y122.699 Z0.4
G0 F6000 X68.042 Y122.79
G0 X152.603 Y122.881
;TIME_ELAPSED:314.892530
;LAYER:1
M140 S60
M106 S85
;TYPE:WALL-INNER
;MESH:dd085485-d49f-48ea-adec-2b59bd1713db.stl
G1 F2700 E196.13805
G1 F2850 X152.481 Y122.897 E196.14214
G1 X68.918 Y122.9 E198.92146
G1 X67.54 Y122.9 E198.96729
G1 X67.397 Y122.881 E198.97209
G1 X67.305 Y122.843 E198.9754
G1 X67.221 Y122.779 E198.97891
G1 X67.157 Y122.695 E198.98242
G1 X67.119 Y122.603 E198.98573
G1 X67.103 Y122.48 E198.98986
G1 X67.1 Y97.537 E199.81947
